svg/color/jdon.svg

<svg width="40" height="40" viewBox="0 0 40 40" fill="none" xmlns="http://www.w3.org/2000/svg">
<g clip-path="url(#clip0_819_3715)">
<path d="M20 0C31.0457 0 40 8.9543 40 20C40 31.0457 31.0457 40 20 40C8.95431 40 7.90517e-06 31.0457 0 20C6.58765e-07 8.95431 8.95431 1.97595e-06 20 0Z" fill="#F9D2D1"/>
<path d="M26 6C30.4183 6 34 9.58172 34 14V26C34 30.4183 30.4183 34 26 34H14C9.58172 34 6 30.4183 6 26V14C6 9.58172 9.58172 6 14 6H26Z" fill="#E31D1A"/>
<path d="M21.563 12.4584C24.2799 12.4584 26.3871 13.0967 27.8232 14.3528C29.2512 15.5967 30 17.5525 30 19.9993C30 22.442 29.2512 24.3937 27.8232 25.6417C26.3912 26.8937 24.2799 27.532 21.563 27.532H18.3592V12.4584H21.563ZM16.6694 12.4625V22.1965C16.6694 23.9723 16.1416 25.3225 15.1023 26.2145C14.0876 27.082 12.4468 27.5279 10.356 27.5279C10.3396 27.5279 10.2946 27.532 10.2414 27.5279H10V25.343H10.2496C10.9738 25.3389 11.5917 25.2735 12.0827 25.1466C12.5859 25.0157 13.0237 24.8152 13.3838 24.541C13.6825 24.3078 13.8953 24.0009 14.018 23.6327C14.1489 23.244 14.2144 22.5484 14.2144 21.5541V12.4625H16.6694ZM20.7283 14.6556V25.3471H21.8412C23.7643 25.3471 25.2209 24.9011 26.1784 24.0255C27.1195 23.1703 27.6146 21.7792 27.6146 20.0034C27.6146 18.2194 27.1195 16.8283 26.1784 15.9731C25.2209 15.1016 23.7602 14.6556 21.8412 14.6556H20.7283Z" fill="white"/>
</g>
<defs>
<clipPath id="clip0_819_3715">
<rect width="40" height="40" fill="white"/>
</clipPath>
</defs>
</svg>

<svg xmlns="http://www.w3.org/2000/svg" width="40" height="40" fill="none" viewBox="0 0 40 40"><g clip-path="url(#jdon_svg-a)"><path fill="#F9D2D1" d="M20 0c11.046 0 20 8.954 20 20s-8.954 20-20 20S0 31.046 0 20 8.954 0 20 0"/><path fill="#E31D1A" d="M26 6a8 8 0 0 1 8 8v12a8 8 0 0 1-8 8H14a8 8 0 0 1-8-8V14a8 8 0 0 1 8-8z"/><path fill="#fff" d="M21.563 12.458c2.717 0 4.824.639 6.26 1.895 1.428 1.244 2.177 3.2 2.177 5.646 0 2.443-.749 4.395-2.177 5.643-1.432 1.252-3.543 1.89-6.26 1.89h-3.204V12.458zm-4.894.005v9.734c0 1.775-.527 3.126-1.567 4.018-1.014.867-2.655 1.313-4.746 1.313-.016 0-.061.004-.115 0H10v-2.185h.25c.724-.004 1.342-.07 1.833-.196a3.6 3.6 0 0 0 1.3-.606c.3-.233.512-.54.635-.908.13-.389.196-1.085.196-2.079v-9.091zm4.06 2.193v10.691h1.112c1.923 0 3.38-.446 4.337-1.322.941-.855 1.437-2.246 1.437-4.022 0-1.784-.495-3.175-1.437-4.03-.957-.871-2.418-1.317-4.337-1.317z"/></g><defs><clipPath id="jdon_svg-a"><path fill="#fff" d="M0 0h40v40H0z"/></clipPath></defs></svg>
